X:1
T:If Any Man Hear
T:If Any Man Hear
T:William Howard Doane
T:Frances Jane (Fanny) Crosby, 1905
T:Public Domain Courtesy of the Cyber Hymnal™
C:William Howard Doane
Z:Public Domain
Z:Courtesy of the Cyber Hymnal™
%%score ( 1 2 ) ( 3 4 )
L:1/8
Q:1/4=115
M:4/4
K:Bb
V:1 treble 
V:2 treble 
V:3 bass 
V:4 bass 
V:1
 ([B,D]>[CE]) | [DF][DF] [DF]2 [DF]3 [DF] | [EG]2 [DF]2 [DF]2 [DB]2 | ([EA]2 [EA]4) [EG]2 | %4
w: 1.~If *|a- ny man now will|hear the voice Of|Christ, * and|
w: 3.~If *|a- ny man now will|hear His voice, And|open * the|
w: 3.~If *|a- ny man now will|hear His voice, And|do * His|
 [DF]6 ([B,D]>[CE]) | [DF][DF] [DF]2 [DF]3 [DF] | [EG]2 [GB]2 [FB]2 [Fd]2 | [Ec]6 ([DB][Ec]) | %8
w: say, Dear *|Sav- ior, come in and|dwell with me, Come|in, I *|
w: door, Then *|Je- sus will come and|sup with him, As|ne’er be- *|
w: will, If *|a- ny man now the|world for- sake, And|trust Him *|
 [DB]6 ||"^Refrain" [DB]>[FA] | [FA]2 [EG]2 [EB]2 [EG]2 | [DF]6 [FB]>[Fc] | %12
w: pray:||||
w: fore.|Peace and|par- don He will|give; O the|
w: still:||||
 [Fd]2 [Fd]2 [=Ed]2 (cd) | [Ec]6 [EF]>[EG] | [DF]2 [Fd]2 [Fd]2 [FB]2 | [EG] [EB]6 z | %16
w: ||||
w: joy thy heart will *|know; He will|cleanse and keep it|ev- er|
w: ||||
"^riten." [DF] [Fd]3 [Fc]2 [Ec]2 | B6 |] %18
w: ||
w: Whit- er than the|snow.|
w: ||
V:2
 x2 | x8 | x8 | x8 | x8 | x8 | x8 | x8 | x6 || x2 | x8 | x8 | x6 =E2 | x8 | x8 | x8 | x8 | %17
 (D2 E2 D2) |] %18
V:3
 [B,,F,]2 | [B,,B,][B,,B,] [B,,B,]2 [B,,B,]3 [B,,B,] | [B,,B,]2 [B,,B,]2 [B,,B,]2 [B,,F,B,]2 | %3
w: ~|~ ~ ~ ~ ~|~ ~ ~ ~|
 ([F,C]2 [F,C]2) [F,C]2 [F,A,]2 | ([B,,B,]2 [B,,B,]2 [B,,B,]2) [B,,F,]2 | %5
w: ~ * ~ ~|~ * * ~|
 [B,,B,][B,,B,] [B,,B,]2 [B,,B,]3 [B,,B,] | [E,B,]2 [E,B,]2 [D,B,]2 [B,,B,]2 | %7
w: ~ ~ ~ ~ ~|~ ~ ~ ~|
 [F,A,]2 [F,A,]2 [F,A,]2 F,2 | [B,,F,]6 || [B,,F,]>[D,B,] | [E,B,]2 [E,B,]2 [E,G,]2 [E,B,]2 | %11
w: ~ ~ ~ ~|~|~ ~|~ ~ ~ ~|
 [B,,B,]2 [B,,B,]2 [B,,B,]2 [D,B,]>[F,A,] | B,2 B,2 [G,B,]2 [C,B,]2 | %13
w: ~ will give; ~ ~|~ ~ ~ ~|
 [F,A,]2 [F,A,]2 [F,A,]2 [F,A,]>[F,A,] | [B,,B,]2 [B,,B,]2 [B,,B,]2 [D,B,]2 | [E,B,] [E,G,]6 z | %16
w: ~ will know; * *|||
 [F,B,] [F,B,]3 [F,A,]2 [F,A,]2 | (F,2 G,2 F,2) |] %18
w: ||
V:4
 x2 | x8 | x8 | x8 | x8 | x8 | x8 | x6 F,2 | x6 || x2 | x8 | x8 | B,2 B,2 x4 | x8 | x8 | x8 | x8 | %17
 B,,6 |] %18

